X:132
T:GB/6a/132 Oxford City
%%VWML:GB-6a-132-0
F:http://www.vwml.org/record/GB/6a/132
C:Transcribed by Simon Furey and Lewis Jones
L:1/4
M:3/2
I:linebreak $
K:Dmix
D | G A G2 D3/2 E/ | =F G E D- D D | G F G2 A B | c d A2 z G |$ A B/c/ d2 c B | A D E/F/ G- G A | B c A2 G2 | D D D3 |]

